X:1
T:Title
%%score ( 1 2 ) { 3 | 4 }
L:1/8
Q:1/4=106
M:3/4
K:F
V:1 treble nm="Bright Piano"
V:2 treble 
V:3 treble nm="Bright Piano"
V:4 bass 
V:1
 [FA]4 [FB]2 | [Fc]4 [FA]2 | [EG]3 [DF] [EG]2 | [FA]4 [FA]2 | [Fc]4 [_EA]2 | [EG]4 [Gc]2 | %6
w: Friedrich~August~Schulz *||||||
 =B3 A [FB]2 | [Ec]4 z2 | [FB]4 [GB]2 | [FA]4 [CF]2 | E4 z2 | C3- [CG] [FA]2 | [FB]4 [_EA]2 | %13
w: |||||||
 [Dd]4 BG | [CF]4 [CE]2 | [CF]6 |] %16
w: |||
V:2
 x6 | x6 | x6 | x6 | x6 | x6 | F4 z2 | x6 | x6 | x6 | C3- [CD] [CE]2 | F4 z2 | x6 | z2 z2 D2 | x6 | %15
 x6 |] %16
V:3
 C4 C2 | C4 C2 | C4 C2 | C4 C2 | C4 C2 | C4 E2 | D4 D2 | C4 z2 | F,4 C2 | C4 C2 | B,4 B,2 | %11
 A,4 C2 | B,4 F,2 | F,4 G,B, | A,2 G,2 B,2 | A,6 |] %16
V:4
 F,4 G,2 | A,4 F,2 | C,4 C,2 | F,4 F,2 | A,4 ^F,2 | G,4 G,2 | G,4 G,,2 | C,4 z2 | D,4 E,2 | %9
 F,4 A,2 | G,4 C,2 | F,4 _E,2 | D,4 C,2 | B,,4 B,,2 | C,4 C,2 | F,,6 |] %16

